usr/share/icons/biglinux-icons-material-dark/symbolic/status/ime-wubi.svg

<?xml version="1.0" encoding="UTF-8"?>
<svg xmlns="http://www.w3.org/2000/svg" xmlns:xlink="http://www.w3.org/1999/xlink" xmlns:cc="http://creativecommons.org/ns#" xmlns:dc="http://purl.org/dc/elements/1.1/" xmlns:rdf="http://www.w3.org/1999/02/22-rdf-syntax-ns#" xmlns:inkscape="http://www.inkscape.org/namespaces/inkscape" xmlns:sodipodi="http://sodipodi.sourceforge.net/DTD/sodipodi-0.dtd" width="22" height="22">
    <style type="text/css" id="current-color-scheme">
      .ColorScheme-Text {
        color:#31363b;
      }
      .ColorScheme-Background {
        color:#eff0f1;
      }
      .ColorScheme-Highlight {
        color:#3daee9;
      }
      .ColorScheme-ViewText {
        color:#31363b;
      }
      .ColorScheme-ViewBackground {
        color:#fcfcfc;
      }
      .ColorScheme-ViewHover {
        color:#93cee9;
      }
      .ColorScheme-ViewFocus{
        color:#3daee9;
      }
      .ColorScheme-ButtonText {
        color:#31363b;
      }
      .ColorScheme-ButtonBackground {
        color:#eff0f1;
      }
      .ColorScheme-ButtonHover {
        color:#93cee9;
      }
      .ColorScheme-ButtonFocus{
        color:#3daee9;
      }
      </style>
    <g transform="translate(154,8e-6) translate(-154,-8e-06)" id="ime-wubi">
    <path style="fill:currentColor;fill-opacity:1;stroke:none" d="M 3,3.0019531 3,19 19,19 19,3.0019531 Z M 4,4 18,4 18,18 4,18 Z M 6,6 6,7 9.8769531,7 9.2109375,10 7,10 7,11 8.9882812,11 8.0996094,15 6,15 l 0,1 10,0 0,-1 -2,0 0,-5 -3.763672,0 L 10.902344,7 15,7 15,6 Z M 10.013672,11 13,11 l 0,4 -3.8769531,0 z" class="ColorScheme-Text" id="path6-6"/>
    <rect style="fill:none;fill-opacity:1;stroke:none" id="rect4138-8" width="22" height="22" x="0" y="0"/>
  </g>
</svg>

<svg xmlns="http://www.w3.org/2000/svg" width="22" height="22">
<style id="current-color-scheme" type="text/css">
.ColorScheme-Contrast{color:#31363b}
</style>
<g id="ime-wubi">
<path id="path6-6" d="M3 3.002V19h16V3.002ZM4 4h14v14H4Zm2 2v1h3.877l-.666 3H7v1h1.988L8.1 15H6v1h10v-1h-2v-5h-3.764l.666-3H15V6Zm4.014 5H13v4H9.123z" class="ColorScheme-Contrast" style="fill:currentColor;fill-opacity:1;stroke:none"/>
<path id="rect4138-8" d="M0 0h22v22H0z" style="fill:none;fill-opacity:1;stroke:none"/>
</g>
</svg>
